X: 6
T: The Dawning Of The Day
R: barndance
M: 4/4
L: 1/8
K: Dmaj
D2 E2 |F4 F2 | F2 E2 F2 | A4 A2 | B3 A F2 | D4 FE | D4 D2 | D6- | D2 F2 A2 |
B4 A2 | B4 d2 | F4 E2 | D4 F2 | A4 F2 | d4 F2 | E6- | E2 F2 A2 |
B4 GA | B3 c d2 | F4 E/F/E | D4 F2 | A4 F/G/A | d3 A F2 | E6- | E2 z3 D/E/ |
F4 F2 | F4 DE/F/ | A4 ^GA | B4 AF | D4 FE | D4 D2 | D6- | D2 |]


Tune 1441	Setting 14825

